src/pos-icons/music-box-multiple.svg

<svg height="24" viewBox="0 0 24 24" width="24" xmlns="http://www.w3.org/2000/svg"><path d="m4 6h-2v14a2 2 0 0 0 2 2h14v-2h-14m14-13h-3v5.5a2.5 2.5 0 0 1 -2.5 2.5 2.5 2.5 0 0 1 -2.5-2.5 2.5 2.5 0 0 1 2.5-2.5c.57 0 1.08.19 1.5.5v-5.5h4m2-3h-12a2 2 0 0 0 -2 2v12a2 2 0 0 0 2 2h12a2 2 0 0 0 2-2v-12a2 2 0 0 0 -2-2z"/></svg>

<?xml version="1.0" encoding="UTF-8"?><!DOCTYPE svg PUBLIC "-//W3C//DTD SVG 1.1//EN" "http://www.w3.org/Graphics/SVG/1.1/DTD/svg11.dtd"><svg xmlns="http://www.w3.org/2000/svg" xmlns:xlink="http://www.w3.org/1999/xlink" version="1.1" id="mdi-music-box-multiple" width="24" height="24" viewBox="0 0 24 24"><path d="M4,6H2V20A2,2 0 0,0 4,22H18V20H4M18,7H15V12.5A2.5,2.5 0 0,1 12.5,15A2.5,2.5 0 0,1 10,12.5A2.5,2.5 0 0,1 12.5,10C13.07,10 13.58,10.19 14,10.5V5H18M20,2H8A2,2 0 0,0 6,4V16A2,2 0 0,0 8,18H20A2,2 0 0,0 22,16V4A2,2 0 0,0 20,2Z" /></svg>
